X: 10092
T: Didn't Make It
R: barndance
M: 4/4
K: Gmajor
B2|:"G"d3 B "D"dc BA|"Em" G2F2"G"G2B2|"D"A2G2F2 GA|"G"B2A2GA Bc|
"G"d3B "D"dc BA|"Em"G2F2"G"G2B2|"D"AG FG A2 BA|1 "G"GD EF GA Bc:|2 "G"G2F2G2Bc||
|:"G"d2B2"C"c2e2|"G"d2B4Bc|"G"d2B2"C"c2e2|"G"d6Bc|
"G"d2B2"Em"G2E2|"Am"c2A2"D"F2D2|"G"G2G2"C"GA BA|1 "G"G2F2G2Bc:|2 "G"G4B2d2||
|:"G"g2f2"D"g2a2|"Em"g2f2"C"e2a2|"G"g4"D"f4|"G"g2d2B2d2|
"G"g2f2"D"g2a2|"Em"g2f2"C"e2a2|"G"g4"D"f4|1 "G"g2Bc"D" d^d ef:|2 "G"g6z2||

